X: 911
T: Spellan the Fiddler   #2
R: hornpipe
%S: s:2 b:10(5+5)
B: Francis O'Neill: "The Dance Music of Ireland" (1907) #911
Z: Frank Nordberg - http://www.musicaviva.com
F: http://www.musicaviva.com/abc/tunes/ireland/oneill-1001/0911/oneill-1001-0911-1.abc
M: C|
L: 1/8
K: G
(3DEF "^A"\
|: G>DB>G d>Bg>d | b>g (3ded c>BA>G |\
[1,3 .F(d^cd) .A(dcd) | d>ce>d c>AF>D :|\
[2,4 f>ec>A e>dB>G |
| FA (3DEF "^fine"G2 "^B":: g2 \
| b>gd>B G>Bd>g | a>fc>A F>Ac>f \
| a>gb>a c'>ba>g | f>ed>c B>AG>"^->A2"F |]
